X:1
T:The King Rejoices in Your Strength
T:Tune: Supplement to the New Version, 1708 Text under copyright; for copyrighted material see Psalter Hymnal 21
T:CMD ST. MATTHEW www.hymnary.org/text/the_king_rejoices_in_your_strength
T:The King Rejoices in Your Strength
T:This music is in the public domain. You may freely use this score for personal and congregational worship. If you reproduce the score, please credit Hymnary.org as the source. 
T:This music is in the public domain. You may freely use this score for personal and congregational worship. If you reproduce the score, please credit Hymnary.org as the source. 
Z:This music is in the public domain. You may freely use this score for personal and congregational worship. If you reproduce the score, please credit Hymnary.org as the source.
%%score ( 1 2 ) ( 3 4 )
L:1/8
M:3/4
K:Bb
V:1 treble nm="SOPRANO ALTO" snm="S. A."
V:2 treble 
V:3 bass nm="TENOR BASS" snm="T. B."
V:4 bass 
V:1
 F2 | D4 F2 | B4 d2 | (c2 B2) A2 | B4 d2 | c4 F2 | (G2 F2) =E2 | F4 c2 | A4 F2 | B4 d2 | %10
 (d2 c2) B2 | (B2 A2) F2 | B4 d2 | (c2 B2) A2 | B4 D2 | D4 G2 | (G2 ^F2) G2 | (A2 G2) ^F2 | G4 A2 | %19
 B4 AG | F4 =E2 | D4 F2 | F4 B2 | G4 G2 |1 c4 B2 | (B2 A2) F2 | B4 d2 | (c2 B2) A2 | B4 x2 |] %29
V:2
 C2 | D4 D2 | D4 F2 | (E2 D2) C2 | D4 F2 | F4 F2 | (D2 C2) C2 | C4 F2 | F4 F2 | F4 F2 | G4 DE | %11
 F4 C2 | F4 F2 | (E2 D2) C2 | D4 C2 | B,4 D2 | D4 B,2 | (E2 D2) D2 | D4 ^F2 | G4 D2 | D4 ^C2 | %21
 D4 _E2 | (D2 E2) F2 | E4 F2 |1 (=E2 F2) G2 | F4 F2 | (F2 E2) D2 | (G2 F2) F2 | F4 x2 |] %29
V:3
 F,2 | B,4 A,2 | B,4 B,2 | (G,2 F,2) F,2 | F,4 B,2 | C4 A,2 | (B,2 A,2) G,2 | A,4 A,2 | C4 C2 | %9
 B,4 B,2 | (B,2 C2) G,2 | C4 A,2 | B,4 B,2 | (G,2 F,2) F,2 | F,4 ^F,2 | G,4 G,2 | (B,2 A,2) G,2 | %17
 (C2 B,2) A,2 | B,4 D2 | (D2 ^C2) DB, | A,4 G,2 | F,4 A,2 | B,4 B,2 | B,4 =B,2 |1 C4 C2 | C4 A,2 | %26
 B,4 F2 | (E2 D2) C2 | D4 x2 |] %29
V:4
 A,,2 | B,,4 D,2 | G,4 D,2 | (E,2 F,2) F,,2 | B,,4 B,,2 | A,,4 D,2 | (B,,2 C,2) C,2 | F,4 F,2 | %8
 F,4 E,2 | D,4 B,,2 | E,4 G,2 | F,4 E,2 | D,4 B,,2 | (E,2 F,2) F,2 | B,,4 A,,2 | G,,4 B,,2 | %16
 D,4 E,2 | (C,2 D,2) D,2 | G,4 D,2 | (G,2 =E,2) F,G, | A,4 A,,2 | D,4 C,2 | (B,,2 C,2) D,2 | %23
 E,4 D,2 |1 (C,2 D,2) =E,2 | F,4 E,2 | (D,2 C,2) B,,2 | (E,2 F,2) F,,2 | B,,4 x2 |] %29

